X:194
M:2/4
L:1/8
K:G
|:B2 GB|c2 ec|B2 GB|AFED|g2 dB|cdef|gedc|B2 G2:|

